X:1
T:The Eliza
T:The Eliza
T:Cahusac 1790
C:Cahusac 1790
L:1/8
M:4/4
K:C
V:1 treble 
V:1
 gf | e2 c2 c2 Bc | d2 G2 G2 AB | c2 c2 d2 e2 | e4 d2 gf | e2 c2 c2 Bc | d2 G2 G2 AB | c2 c2 edcd | %8
 c6 | gf | e2 c2 c2 Bc | d2 G2 G2 AB | c2 c2 d2 e2 | e4 d2 gf | e2 c2 c2 Bc | d2 G2 G2 AB | %16
 c2 c2 edcd | c6 | EF | G2 G2 G2 c2 | G2 G2 G2 EF | G2 G2 G2 c2 | G6 EF | G2 G2 G2 c2 | %24
 A2 A2 A2 d2 | B2 G2 BAG^F | G6 | EF | G2 G2 G2 c2 | G2 G2 G2 EF | G2 G2 G2 c2 | G6 EF | %32
 G2 G2 G2 c2 | A2 A2 A2 d2 | B2 G2 BAGB | c6 || %36

